X:1
T:We merry minstrels
T:We merry minstrels
T:Henry Purcell
C:Henry Purcell
%%score [ 1 2 3 ]
L:1/8
Q:1/4=71
M:6/8
K:Bb
V:1 treble nm="I"
V:2 treble nm="II"
V:3 treble nm="III"
V:1
"^Adagio" B B B A A A | G G G F2 F | E E E D D D | C C C B,2 z :| %4
w: We mer- ry min- strels soft|mu- sic en- joy, for|mu- sic doth ha- tred and|mal- ice de- stroy.|
V:2
 d d d c c c | B B B A2 A | G G G F F F | E E E D2 z :| %4
w: We sing so blithe- ly, we|drive a- way care, and|with tune- ful har- mo- ny|ban- ish de- spair.|
V:3
 B, B,/C/ D/E/ F F F | G G G D2 D | E E/F/ G/A/ B B, B, | E C A, B,2 z :| %4
w: Then hail _ sweet _ si- lence, hail|heav- en- ly sound. No|pleas- ure _ like _ mu- sic on|earth can be found.|

